usr/share/icons/biglinux-icons-material/scalable/mimetypes/office-contact.svg

<svg width="24" height="24" viewBox="0 0 24 24" fill="none" xmlns="http://www.w3.org/2000/svg">
<rect x="1" y="1" width="22" height="22" rx="6.6" fill="url(#paint0_radial_6_111)"/>
<path d="M12.173 5.01763C11.4997 4.87677 10.8695 5.63596 10.3578 5.31282C10.247 5.82032 9.69808 5.42623 9.72242 5.84984C9.05955 6.36564 8.62765 7.21338 8.67736 8.072C8.56861 8.74678 8.90833 9.59297 8.4842 10.1486C8.35215 10.8001 8.45831 11.5143 8.67995 12.1398C9.1393 12.8379 9.85033 13.4133 10.0098 14.2874C10.0849 15.0994 9.20869 15.5531 8.6696 15.9953C7.82651 16.5774 6.9306 17.0238 6 17.4464V19H18.4288V17.4464C17.162 16.8918 16.0168 16.0933 15.0585 15.0963C14.3822 14.4469 15.0378 13.5179 15.4661 12.9337C16.0336 12.4563 16.3283 11.7577 16.3345 11.0156C16.523 10.2848 15.9565 9.73435 16.0885 8.99225C16.0704 8.05129 16.2082 6.91975 15.42 6.23462C14.5324 5.46196 13.3345 5.06113 12.173 5.01763Z" fill="white"/>
<defs>
<radialGradient id="paint0_radial_6_111" cx="0" cy="0" r="1" gradientUnits="userSpaceOnUse" gradientTransform="translate(17.5 1) rotate(116.565) scale(24.5967)">
<stop stop-color="#8EB9EC"/>
<stop offset="1" stop-color="#4A85CC"/>
</radialGradient>
</defs>
</svg>

<svg xmlns="http://www.w3.org/2000/svg" width="24" height="24" fill="none"><rect width="22" height="22" x="1" y="1" fill="url(#a)" rx="6.6"/><path fill="#fff" d="M12.173 5.018c-.673-.141-1.303.618-1.815.295-.111.507-.66.113-.636.537-.662.516-1.094 1.363-1.045 2.222-.108.675.231 1.521-.193 2.077-.132.651-.026 1.365.196 1.99.46.699 1.17 1.274 1.33 2.148.075.812-.801 1.266-1.34 1.708-.843.582-1.74 1.029-2.67 1.451V19h12.429v-1.554a10.535 10.535 0 0 1-3.37-2.35c-.677-.65-.021-1.578.407-2.162.568-.478.862-1.176.868-1.918.189-.731-.377-1.282-.245-2.024-.019-.94.12-2.072-.669-2.757-.888-.773-2.085-1.174-3.247-1.217Z"/><defs><radialGradient id="a" cx="0" cy="0" r="1" gradientTransform="rotate(116.565 8.441 5.908) scale(24.5967)" gradientUnits="userSpaceOnUse"><stop stop-color="#8EB9EC"/><stop offset="1" stop-color="#4A85CC"/></radialGradient></defs></svg>
